X:1
T:Spancil Hill
M:3/4
L:1/4
K:C
 c- B| A2 D| A2 A| G2- E| C2 z/2 D/2| E- G E| D2 C| D3-| D2 A| A2 d|\
 d2 e| d2- c| A2 B| c2 d| c- B A| G3-| G2 A| A2 d| d2 e| d2 c| A2 B|\
 c2 d| c- B A| G3-| G2 c/2B/2| A2 D| A2 A| G2 E| C2 D| E- G E| D2 C|\
 D3-| D||
